X:1
T:Title
%%score 1 2 3
L:1/8
M:2/2
K:F
V:1 treble-8 nm="Part_1"
V:2 treble-8 nm="Part_2"
V:3 bass nm="Part_3"
V:1
 z8 | z8 | z8 | z8 | d6 e2 | d2 (3:2:2g4 e2 f2 | g4 g4 | b6 a2- | a2 g2 g4- | g2 f2 f2 e2 | g6 f2 | %11
 e2 d2 d4- | d2 B2 c4 | d6 c2 | B2 AG A4 | G4 d4- | d2 c2 d2 e2 | f4 d2 d2- | d2 g4 f2 | %19
 g2 b4 a2- | ag g4 f2 | g8 | z4 d4 | e4 f4 | g6 f2 | e4 d4 | c4 f4 | e4 d4- | d2 c2 B4 | %29
 A4 B2 A2- | A2 d4 c2 | d6 cB | c6 BA | B4 A4 | G4 z4 | G4 A4 | B4 c4 | B2 d4 c2 | d2 B2 A4 | %39
 G4 z4 | g6 fe | f4 g4 | b8 | z4 a4 | g4 f4 | e4 d2 g2- | g2 f2 g2 d2- | d2 e2 d2 cB | %48
 !fermata!A8- | A8 | z4 A4 | A6 G2 | A4 B4- | B4 A4 | c4 d2 e2- | e2 f2 d2 e2- | e2 d4 c2 | d4 z4 | %58
 d6 B2- | BG G2 A4 | G4 z4 | d6 c2 | B4 A2 d2- | d2 d2 d4 | G4 z4 | d6 e2- | e2 f2 g4- | g2 f2 a4 | %68
 b4 a2 a2- | a2 g2 a4 | b6 a2 | g2 fe d4 | b2 a2 c'3 b | ag g4 f2 | g8- |[M:4/2] g16 |] %76
V:2
 z8 | z8 | D6 E2 | D2 G3 E F2 | G4 B4- | B2 AG A4 | B4 G4- | G4 d4 | c4 B4 | A8 | G4 A4- | %11
 A2 G2 F4 | E8 | D4 G4- | G4 F4 | G6 F2 | G2 A2 B4 | A4 G4 | B2 c2 A4 | B2 G2 d4 | c2 B2 A4 | G8- | %22
 G8 | z8 | z4 G4 | A4 B4 | c2 A4 F2 | G2 A2 B4- | B2 A2 G4 | F4 G2 A2- | A2 D2 E4 | z4 D4 | E4 F4 | %33
 G4 z4 | d4 c4 | B2 d4 c2 | d2 B2 A4 | G2 FE D2 E2 | D2 G4 F2 | G2 A2 B4 | z2 G2 B2 c2 | A4 z4 | %42
 G4 d4- | d4 c4 | B4 A2 d2- | d2 c2 d2 B2 | A4 G2 B2- | B2 c2 A2 F2 | !fermata!F8 | z4 F4 | F6 F2 | %51
 F4 D2 E2 | F2 EF G2 FE | D4 F4 | E2 F4 G2 | A4 B2 G2 | A2 F2 E4 | D2 G4 F2 | G4 z4 | d4 c4 | %60
 d6 B2- | B2 G2 A4 | G4 A2 F2 | E4 D4- | D2 E4 F2 | G4 F2 G2 | A4 G2 B2- | BA B2 c2 d2- | %68
 d2 G2 d2 c2 | B4 A2 F2 | G2 FE D2 d2- | d2 c2 B2 d2- | d4 e2 c2- | c2 B2 A4 | G8- |[M:4/2] G16 |] %76
V:3
[K:Bb] D,6 E,2 | D,2 G,4 F,E, | F,4 B,,2 C,2 | D,2 G,,2 A,,4 | G,,4 z2 G,2- | G,2 E,2 D,4 | %6
 G,,4 C,2 B,,2 | G,,4 z4 | F,4 G,4 | D,8 | E,4 C,4 | D,8 | A,,8 | B,,4 G,,4 | z4 D,4 | %15
 B,,2 G,,2 B,,2 A,,2 | G,,4 G,4 | D,4 z4 | G,,4 D,4 | G,,4 G,2 E,2 | F,2 G,2 D,4 | z2 _E,4 D,2 | %22
 C,2 B,,A,, B,,4 | C,4 D,4 | E,2 C,4 G,,2 | (3:2:2C,4 B,,2 G,,4 | A,,4 D,4 | C,4 B,,2 G,,2- | %28
 G,,2 A,,2 B,,2 G,,2 | D,4 z4 | D,4 A,,4 | B,,2 G,,4 B,,2 | A,,4 A,,4 | G,,4 C,4 | z2 G,,2 A,,4 | %35
 G,,4 z4 | G,4 F,4 | G,2 G,,2 B,,2 A,,2 | B,,2 G,,2 D,4 | E,2 F,2 G,4 | z2 G,,6 | D,4 G,,4 | %42
 z4 G,,4 | G,4 A,2 F,2 | G,4 D,4 | A,,4 B,,2 G,,2 | D,4 G,,4 | z4 G,,4 | D,6 D,2 | D,4 D,4 | %50
 D,4 z4 | D,6 C,B,, | A,,4 G,,4- | G,,4 D,4 | A,,4 D,2 C,2- | C,2 D,2 B,,2 C,2- | C,2 D,2 A,,4 | %57
 B,,2 G,,2 D,4 | z2 B,,2 G,,4 | G,4 z4 | G,6 F,2 | D,2 E,2 F,4 | G,2 E,2 F,2 D,2 | A,,4 B,,2 G,,2 | %64
 B,,2 C,2 A,,4 | G,,4 z4 | C,2 D,2 G,,4 | z4 F,4 | G,4 D,2 F,2 | G,4 D,4 | G,,8 | %71
 (3:2:2G,4 A,2 B,2 A,2 | G,2 F,2 E,2 F,2- | F,2 G,2 D,4 | z2 G,,2 C,2 B,,2 |[M:4/2] G,,16 |] %76

